src/assets/images/icons/run.svg

<svg xmlns="http://www.w3.org/2000/svg" width="15.922" height="21.5" viewBox="0 0 15.922 21.5">
  <path id="Path_1593" data-name="Path 1593" d="M13.49,5.48a2,2,0,1,0-2-2A2.006,2.006,0,0,0,13.49,5.48Zm-5.308,11.5-3.9-.795a1.01,1.01,0,0,0-1.192.791l0,.016a1.009,1.009,0,0,0,.792,1.188L8.942,19.19a1,1,0,0,0,1.172-.761l.776-3.449,2.1,2v5.01a.99.99,0,0,0,.99.99H14a.99.99,0,0,0,.99-.99V15.909a1,1,0,0,0-.31-.725l-1.79-1.7.6-3a7.327,7.327,0,0,0,4.364,2.411,1,1,0,0,0,1.136-1h0a1,1,0,0,0-.846-.981A4.852,4.852,0,0,1,14.69,8.58l-1-1.6a2.145,2.145,0,0,0-2.655-.838L6.6,8.022a1,1,0,0,0-.61.92V11.98a1,1,0,0,0,1,1h0a1,1,0,0,0,1-1V9.58l1.8-.7Z" transform="translate(-3.068 -1.48)" fill-rule="evenodd"/>
</svg>

<svg id="Layer_1" data-name="Layer 1" xmlns="http://www.w3.org/2000/svg" viewBox="0 0 24 24"><defs><style>.cls-1{fill:none;}.cls-2{fill-rule:evenodd;}</style></defs><title>ProRunIcons</title><rect class="cls-1" width="24" height="24"/><path class="cls-2" d="M13.49,5.48a2,2,0,1,0-2-2A2,2,0,0,0,13.49,5.48ZM8.18,17l-3.9-.8A1,1,0,0,0,3.09,17v0a1,1,0,0,0,.79,1.19l5.06,1a1,1,0,0,0,1.17-.76L10.89,15,13,17v5a1,1,0,0,0,1,1h0a1,1,0,0,0,1-1V15.91a1,1,0,0,0-.31-.73l-1.79-1.7.6-3a7.32,7.32,0,0,0,4.36,2.41,1,1,0,0,0,1.14-1h0a1,1,0,0,0-.85-1,4.83,4.83,0,0,1-3.45-2.33l-1-1.6A2.15,2.15,0,0,0,11,6.14L6.6,8A1,1,0,0,0,6,8.94v3a1,1,0,0,0,1,1H7a1,1,0,0,0,1-1V9.58l1.8-.7Z"/></svg>
